Sources/FrostedUI/Resources/Icons.xcassets/arrowUpRightFromSquare24.imageset/arrow-up-right-from-square-24.svg

<svg width="24" height="24" viewBox="0 0 24 24" fill="none" xmlns="http://www.w3.org/2000/svg" data-fui-icon="true">
  <path
    d="M9.25 5C9.66421 5 10 5.33579 10 5.75C10 6.16421 9.66421 6.5 9.25 6.5H6.875C6.33885 6.5 5.97893 6.5002 5.70117 6.52148C5.43153 6.54216 5.30147 6.57964 5.21582 6.62012C4.95439 6.74377 4.74377 6.95438 4.62012 7.21582C4.57964 7.30147 4.54216 7.43153 4.52148 7.70117C4.5002 7.97893 4.5 8.33885 4.5 8.875V17.0498C4.5 17.6222 4.50024 18.0068 4.52441 18.3027C4.54788 18.5898 4.59059 18.7269 4.63672 18.8174C4.75657 19.0525 4.94755 19.2435 5.18262 19.3633C5.27315 19.4094 5.41027 19.4521 5.69727 19.4756C5.99314 19.4998 6.37777 19.5 6.9502 19.5H15.0498C15.6222 19.5 16.0068 19.4998 16.3027 19.4756C16.5898 19.4521 16.7269 19.4094 16.8174 19.3633C17.0525 19.2435 17.2435 19.0525 17.3633 18.8174C17.4094 18.7269 17.4521 18.5898 17.4756 18.3027C17.4998 18.0068 17.5 17.6222 17.5 17.0498V14C17.5 13.5858 17.8358 13.25 18.25 13.25C18.6642 13.25 19 13.5858 19 14V17.0498C19 17.5975 19.001 18.0537 18.9707 18.4248C18.9397 18.8045 18.8719 19.1609 18.7002 19.498C18.4366 20.0155 18.0155 20.4366 17.498 20.7002C17.1609 20.8719 16.8045 20.9397 16.4248 20.9707C16.0537 21.001 15.5975 21 15.0498 21H6.9502C6.40252 21 5.94633 21.001 5.5752 20.9707C5.19547 20.9397 4.83909 20.8719 4.50195 20.7002C3.98442 20.4366 3.56343 20.0154 3.2998 19.498C3.12809 19.1609 3.06033 18.8045 3.0293 18.4248C2.99897 18.0537 3 17.5975 3 17.0498V8.875C3 8.36187 2.99966 7.93436 3.02637 7.58594C3.0537 7.22977 3.11227 6.89439 3.26367 6.57422C3.5357 5.99908 3.99908 5.5357 4.57422 5.26367C4.89439 5.11227 5.22977 5.0537 5.58594 5.02637C5.93436 4.99966 6.36188 5 6.875 5H9.25ZM20.25 3C20.6642 3 21 3.33579 21 3.75V10.25C21 10.6642 20.6642 11 20.25 11C19.8358 11 19.5 10.6642 19.5 10.25V5.56055L11.5303 13.5303C11.2374 13.8232 10.7626 13.8232 10.4697 13.5303C10.1768 13.2374 10.1768 12.7626 10.4697 12.4697L18.4395 4.5H13.75C13.3358 4.5 13 4.16421 13 3.75C13 3.33579 13.3358 3 13.75 3H20.25Z"
    fill="currentColor"
  />
</svg>

<svg xmlns="http://www.w3.org/2000/svg" width="24" height="24" fill="none" data-fui-icon="true" viewBox="0 0 24 24"><path fill="currentColor" d="M9.25 5a.75.75 0 0 1 0 1.5H6.875c-.536 0-.896 0-1.174.021-.27.021-.4.059-.485.1a1.25 1.25 0 0 0-.596.595c-.04.085-.078.216-.099.485-.02.278-.021.638-.021 1.174v8.175c0 .572 0 .957.024 1.253.024.287.067.424.113.514.12.235.31.427.546.546.09.046.227.09.514.113.296.024.68.024 1.253.024h8.1c.572 0 .957 0 1.253-.024.287-.024.424-.067.514-.113.235-.12.427-.31.546-.546.046-.09.09-.227.113-.514.024-.296.024-.68.024-1.253V14a.75.75 0 0 1 1.5 0v3.05c0 .547.001 1.004-.03 1.375-.03.38-.098.736-.27 1.073a2.75 2.75 0 0 1-1.202 1.202c-.337.172-.694.24-1.073.27-.371.031-.828.03-1.375.03h-8.1c-.547 0-1.004.001-1.375-.03-.38-.03-.736-.098-1.073-.27A2.75 2.75 0 0 1 3.3 19.498c-.172-.337-.24-.694-.27-1.073-.031-.371-.03-.828-.03-1.375V8.875c0-.513 0-.94.026-1.29.028-.355.086-.69.238-1.01a2.75 2.75 0 0 1 1.31-1.311c.32-.152.656-.21 1.012-.238C5.934 5 6.362 5 6.875 5zm11-2a.75.75 0 0 1 .75.75v6.5a.75.75 0 0 1-1.5 0V5.56l-7.97 7.97a.75.75 0 1 1-1.06-1.06l7.97-7.97h-4.69a.75.75 0 0 1 0-1.5z"/></svg>
